markup/public/images/card-02.svg

<svg width="67" height="53" viewBox="0 0 67 53" fill="none" xmlns="http://www.w3.org/2000/svg">
<g clip-path="url(#clip0)" filter="url(#filter0_d)">
<path d="M62.7086 15.5121C62.8214 15.3809 62.8872 15.2404 62.9342 15.1187C62.9812 14.9969 63 14.8751 63 14.7627C63 14.5754 62.9436 14.3974 62.8308 14.2288C62.718 14.0602 62.5394 13.9009 62.2762 13.7698C59.588 12.4677 56.8904 11.1751 54.2022 9.87302C47.6602 6.70691 41.1088 3.55017 34.5668 0.384055C34.3224 0.262281 34.0875 0.168609 33.8807 0.103039C33.6645 0.0374688 33.4765 0 33.2979 0C33.1663 0 33.0347 0.0187344 32.8937 0.0655704C32.687 0.131141 32.4708 0.224813 32.2358 0.327852C32.0102 0.430891 31.7658 0.562032 31.5214 0.683805C22.592 5.15196 13.672 9.62947 4.74255 14.0883C4.57336 14.1726 4.46057 14.2569 4.37598 14.3505C4.28198 14.4442 4.20679 14.5566 4.14099 14.7159C4.09399 14.8189 4.047 14.9313 4 15.0531C4 15.1374 4 15.2311 4 15.3154C4.0564 15.4746 4.12219 15.6057 4.19739 15.7182C4.29138 15.8587 4.40417 15.9711 4.56396 16.0835C4.66736 16.1584 4.78955 16.2333 4.93994 16.2989C8.39892 17.9663 11.8203 19.6898 15.2511 21.3666C15.4015 21.4415 15.5425 21.5258 15.6834 21.6476C15.8244 21.7694 15.956 21.9286 16.05 22.1066C16.1158 22.2284 16.1534 22.3501 16.1816 22.4719C16.2192 22.6311 16.2286 22.781 16.2286 22.9309V22.9403C16.2098 28.2608 16.2192 33.5814 16.2098 38.9113C16.2098 38.9207 16.2098 38.9207 16.2098 38.9301C20.0636 41.7496 24.3215 43.5856 29.0118 44.5035C30.6943 44.8314 32.3674 45 34.0311 45C35.7982 45 37.5652 44.8033 39.3323 44.4005C43.2801 43.4919 46.786 41.7683 49.8502 39.1268C49.8596 39.1174 49.869 39.108 49.869 39.108C49.869 39.0987 49.869 39.0799 49.869 39.0518C49.8596 33.7313 49.869 28.4107 49.8502 23.0901V23.0995C49.8502 23.0901 49.8502 23.0901 49.8502 23.0808C49.8502 22.9215 49.8596 22.7529 49.9066 22.5749C49.9536 22.397 50.0382 22.2096 50.1604 22.0597C50.2356 21.9567 50.3296 21.863 50.4236 21.7881C50.5458 21.6851 50.6774 21.6195 50.7996 21.5539C54.5969 19.6805 58.3849 17.7977 62.1729 15.8961C62.2856 15.8399 62.4078 15.7744 62.4924 15.6994C62.5958 15.6338 62.671 15.5589 62.7086 15.5121ZM47.7636 37.7217C47.7166 37.8997 47.6414 38.087 47.538 38.2463C47.4722 38.3587 47.3876 38.4523 47.303 38.546C47.1902 38.6678 47.068 38.7615 46.9364 38.8458C44.9814 40.1853 42.9229 41.2157 40.7516 41.9182C38.5804 42.6114 36.3057 42.9673 33.9277 42.9673C33.8713 42.9673 33.8149 42.9673 33.7679 42.9673C30.3371 42.9486 27.0379 42.2086 23.9079 40.8597C22.1972 40.1197 20.6275 39.2111 19.0484 38.4149C18.9262 38.3587 18.804 38.2744 18.6913 38.1713C18.5785 38.0683 18.4657 37.9371 18.3905 37.7873C18.3435 37.6842 18.3059 37.5812 18.2777 37.4781C18.2401 37.3376 18.2307 37.2065 18.2307 37.0847V37.0754C18.2401 32.9725 18.2401 28.8697 18.2401 24.7669C18.2401 24.6638 18.2495 24.5701 18.2495 24.4858C18.2589 24.4015 18.2589 24.3172 18.2683 24.2048L18.3529 22.9496L19.4902 23.5117C20.5241 24.0175 21.4923 24.4952 22.4604 24.9636C25.3272 26.378 28.1752 27.8112 31.0327 29.1975C31.4462 29.3943 31.8504 29.5535 32.2452 29.6565C32.64 29.7596 33.0253 29.8158 33.4013 29.8158C33.7397 29.8158 34.0781 29.7689 34.4258 29.6753C34.7642 29.5816 35.112 29.4317 35.4786 29.2256C36.3057 28.7386 37.1517 28.3826 37.913 27.9985C40.6388 26.6403 43.3647 25.2727 46.0905 23.9144C46.1845 23.8676 46.2691 23.8301 46.3443 23.7927C46.4289 23.7552 46.5041 23.7271 46.5887 23.6896L47.6978 23.2025L47.7824 24.4015C47.7918 24.4765 47.7918 24.5514 47.8012 24.6357C47.8106 24.72 47.8106 24.8137 47.8106 24.9261C47.8106 25.357 47.8106 25.7785 47.8106 26.2094C47.8106 27.5489 47.8106 28.8791 47.8106 30.2186C47.8106 32.5416 47.8106 34.8647 47.82 37.1878V37.1971C47.8294 37.3657 47.8106 37.5437 47.7636 37.7217ZM58.2157 15.5964C57.8021 15.8118 57.4168 16.0085 57.0314 16.2052C49.3709 20.0177 41.7198 23.8301 34.0593 27.652C33.9465 27.7082 33.8243 27.755 33.6927 27.7925C33.5611 27.8299 33.4107 27.8487 33.2697 27.8487C33.1287 27.8487 32.9783 27.8299 32.8467 27.7925C32.7152 27.755 32.593 27.7082 32.4802 27.652C24.7069 23.7927 16.9054 19.9428 9.11327 16.0928C9.01928 16.046 8.94408 15.9992 8.87829 15.9617C8.81249 15.9242 8.75609 15.8868 8.6997 15.8493L7.38378 15.0531L8.76549 14.3693C10.495 13.5169 12.1775 12.6832 13.86 11.8495C20.0636 8.78643 26.2766 5.72336 32.4802 2.65092C32.5836 2.60408 32.6964 2.54788 32.8279 2.51041C32.9595 2.46357 33.1287 2.43547 33.2979 2.43547C33.4201 2.43547 33.5423 2.4542 33.6551 2.48231C33.7773 2.51041 33.8901 2.55724 33.9935 2.60408C41.9266 6.36969 49.869 10.1259 57.8115 13.8822C57.8773 13.9197 57.9431 13.9478 58.0089 13.9852C58.0747 14.0227 58.1405 14.0508 58.2157 14.0883L59.6914 14.8376L58.2157 15.5964Z" fill="#67717D"/>
<rect x="25.1509" y="11.25" width="14.4717" height="1.125" rx="0.5625" fill="#67717D"/>
<rect x="21.8113" y="14.625" width="22.2642" height="1.125" rx="0.5625" fill="#67717D"/>
<rect x="25.1509" y="18" width="14.4717" height="1.125" rx="0.5625" fill="#67717D"/>
</g>
<defs>
<filter id="filter0_d" x="0" y="0" width="67" height="53" filterUnits="userSpaceOnUse" color-interpolation-filters="sRGB">
<feFlood flood-opacity="0" result="BackgroundImageFix"/>
<feColorMatrix in="SourceAlpha" type="matrix" values="0 0 0 0 0 0 0 0 0 0 0 0 0 0 0 0 0 0 127 0"/>
<feOffset dy="4"/>
<feGaussianBlur stdDeviation="2"/>
<feColorMatrix type="matrix" values="0 0 0 0 0 0 0 0 0 0 0 0 0 0 0 0 0 0 0.25 0"/>
<feBlend mode="normal" in2="BackgroundImageFix" result="effect1_dropShadow"/>
<feBlend mode="normal" in="SourceGraphic" in2="effect1_dropShadow" result="shape"/>
</filter>
<clipPath id="clip0">
<rect width="59" height="45" fill="white" transform="translate(4)"/>
</clipPath>
</defs>
</svg>

<svg width="67" height="53" viewBox="0 0 67 53" fill="none" xmlns="http://www.w3.org/2000/svg"><g clip-path="url(#a)" filter="url(#b)" fill="#67717D"><path d="M62.709 15.512c.112-.131.178-.272.225-.393a.945.945 0 0 0-.103-.89 1.396 1.396 0 0 0-.555-.46c-2.688-1.301-5.386-2.594-8.074-3.896C47.66 6.707 41.11 3.55 34.567.384a4.844 4.844 0 0 0-.686-.281A2.016 2.016 0 0 0 33.298 0a1.25 1.25 0 0 0-.404.066 6.695 6.695 0 0 0-.658.262c-.226.103-.47.234-.715.356-8.929 4.468-17.849 8.945-26.778 13.404a1.19 1.19 0 0 0-.602.628 6.133 6.133 0 0 0-.141.337v.262c.056.16.122.29.197.403.094.14.207.253.367.366.103.074.226.15.376.215 3.459 1.667 6.88 3.39 10.311 5.068.15.075.292.159.432.28.141.122.273.282.367.46.066.121.103.243.132.365.037.16.047.309.047.459v.01c-.02 5.32-.01 10.64-.02 15.97v.02c3.855 2.819 8.113 4.655 12.803 5.573a26.26 26.26 0 0 0 5.02.496c1.766 0 3.533-.197 5.3-.6 3.948-.908 7.454-2.632 10.518-5.273l.019-.019v-.056c-.01-5.32 0-10.641-.019-15.962v-.01c0-.158.01-.327.057-.505s.131-.365.253-.515c.076-.103.17-.197.264-.272.122-.103.253-.169.376-.234a1830.1 1830.1 0 0 0 11.373-5.658 1.53 1.53 0 0 0 .32-.197.925.925 0 0 0 .216-.187zm-14.945 22.21a1.847 1.847 0 0 1-.226.524 1.82 1.82 0 0 1-.235.3 1.834 1.834 0 0 1-.367.3c-1.955 1.34-4.013 2.37-6.184 3.072a22.305 22.305 0 0 1-6.824 1.05h-.16c-3.43-.02-6.73-.76-9.86-2.108-1.71-.74-3.28-1.649-4.86-2.445a1.42 1.42 0 0 1-.357-.244 1.367 1.367 0 0 1-.3-.384 2.047 2.047 0 0 1-.113-.309 1.494 1.494 0 0 1-.047-.393v-.01c.01-4.103.01-8.205.01-12.308 0-.103.009-.197.009-.281.009-.085.009-.169.018-.281l.085-1.255 1.137.562c1.034.505 2.002.983 2.97 1.452 2.867 1.414 5.715 2.847 8.573 4.234.413.196.817.355 1.212.459.395.103.78.159 1.156.159a3.94 3.94 0 0 0 1.025-.14 4.741 4.741 0 0 0 1.053-.45c.827-.487 1.673-.843 2.434-1.227 2.726-1.359 5.452-2.726 8.178-4.085.093-.046.178-.084.253-.121.085-.038.16-.066.245-.103l1.109-.488.084 1.2c.01.075.01.15.02.234.009.084.009.178.009.29v5.294c0 2.323 0 4.646.009 6.969v.01c.01.168-.01.346-.056.524zm10.452-22.126c-.414.216-.8.413-1.185.61a25818.54 25818.54 0 0 0-22.972 11.446 2.128 2.128 0 0 1-.366.14 1.591 1.591 0 0 1-.846 0 2.13 2.13 0 0 1-.367-.14c-7.773-3.86-15.575-7.71-23.367-11.56-.094-.046-.169-.093-.235-.13a2.96 2.96 0 0 1-.178-.113l-1.316-.796 1.381-.684c1.73-.852 3.412-1.686 5.095-2.52 6.204-3.063 12.417-6.126 18.62-9.198.104-.047.216-.103.348-.14a1.454 1.454 0 0 1 .827-.029 1.8 1.8 0 0 1 .338.122 17961.29 17961.29 0 0 0 23.819 11.278c.065.038.131.066.197.103.066.038.132.066.207.103l1.475.75-1.475.758z"/><rect x="25.151" y="11.25" width="14.472" height="1.125" rx=".563"/><rect x="21.811" y="14.625" width="22.264" height="1.125" rx=".563"/><rect x="25.151" y="18" width="14.472" height="1.125" rx=".563"/></g><defs><filter id="b" x="0" y="0" width="67" height="53" filterUnits="userSpaceOnUse" color-interpolation-filters="sRGB"><feFlood flood-opacity="0" result="BackgroundImageFix"/><feColorMatrix in="SourceAlpha" values="0 0 0 0 0 0 0 0 0 0 0 0 0 0 0 0 0 0 127 0"/><feOffset dy="4"/><feGaussianBlur stdDeviation="2"/><feColorMatrix values="0 0 0 0 0 0 0 0 0 0 0 0 0 0 0 0 0 0 0.25 0"/><feBlend in2="BackgroundImageFix" result="effect1_dropShadow"/><feBlend in="SourceGraphic" in2="effect1_dropShadow" result="shape"/></filter><clipPath id="a"><path fill="#fff" transform="translate(4)" d="M0 0h59v45H0z"/></clipPath></defs></svg>
